image/footer-3.svg

<svg width="22" height="22" viewBox="0 0 22 22" fill="none" xmlns="http://www.w3.org/2000/svg">
<path d="M20.8139 15.9197V18.9197C20.815 19.1982 20.7585 19.4738 20.6479 19.729C20.5373 19.9842 20.3752 20.2132 20.1718 20.4015C19.9684 20.5898 19.7283 20.7331 19.4668 20.8223C19.2054 20.9115 18.9283 20.9447 18.6534 20.9196C15.6038 20.5853 12.6744 19.5338 10.1007 17.8497C7.70617 16.3144 5.67602 14.2659 4.15443 11.8498C2.47955 9.2411 1.43723 6.27096 1.11193 3.18004C1.08716 2.90352 1.11973 2.62482 1.20756 2.36169C1.29539 2.09856 1.43656 1.85677 1.62208 1.6517C1.8076 1.44664 2.0334 1.2828 2.28512 1.17061C2.53683 1.05843 2.80893 1.00036 3.08411 1.0001H6.05724C6.5382 0.995321 7.00447 1.16717 7.36915 1.48362C7.73382 1.80006 7.97202 2.23951 8.03933 2.72006C8.16482 3.6801 8.39754 4.62274 8.73306 5.52999C8.8664 5.8879 8.89526 6.27688 8.81622 6.65084C8.73718 7.0248 8.55355 7.36805 8.28709 7.63994L7.02847 8.90991C8.43927 11.4134 10.4936 13.4862 12.9747 14.9098L14.2334 13.6398C14.5028 13.3709 14.843 13.1857 15.2136 13.1059C15.5842 13.0261 15.9698 13.0553 16.3245 13.1898C17.2236 13.5283 18.1578 13.7632 19.1093 13.8898C19.5907 13.9583 20.0304 14.203 20.3447 14.5773C20.659 14.9515 20.826 15.4293 20.8139 15.9197Z" stroke="#FF5449" stroke-width="2" stroke-linecap="round" stroke-linejoin="round"/>
</svg>

<?xml version="1.0" encoding="UTF-8" standalone="no"?>
<svg width="22" xmlns="http://www.w3.org/2000/svg" fill="none" viewBox="0 0 22 22" height="22">
 <path stroke-linejoin="round" stroke="#FF5449" stroke-width="2" stroke-linecap="round" d="m20.814 15.92v3c0.001 0.278-0.056 0.554-0.166 0.809-0.111 0.255-0.273 0.484-0.476 0.673-0.204 0.188-0.444 0.331-0.705 0.42-0.262 0.09-0.539 0.123-0.814 0.098-3.049-0.335-5.979-1.386-8.552-3.07-2.3948-1.536-4.425-3.584-5.9466-6-1.6748-2.6089-2.7172-5.579-3.0425-8.67-0.0247-0.2765 0.0078-0.5552 0.0957-0.8183 0.0878-0.2631 0.229-0.5049 0.4145-0.71s0.4113-0.3689 0.663-0.4811 0.5238-0.1702 0.799-0.1705h2.9731c0.481-0.00478 0.9473 0.1671 1.312 0.4835 0.3646 0.3165 0.6028 0.7559 0.6701 1.2365 0.1255 0.96 0.3582 1.9026 0.6938 2.8099 0.1333 0.3579 0.1622 0.7469 0.0831 1.1208-0.079 0.374-0.2626 0.7172-0.5291 0.9891l-1.2586 1.27c1.4108 2.5031 3.4655 4.5761 5.9465 6.0001l1.258-1.27c0.27-0.269 0.61-0.454 0.981-0.534 0.37-0.08 0.756-0.051 1.11 0.084 0.9 0.338 1.834 0.573 2.785 0.7 0.482 0.068 0.921 0.313 1.236 0.687 0.314 0.375 0.481 0.852 0.469 1.343z"/>
</svg>
